www/assets/icons/auto_mode.svg

<svg width="24" height="24" viewBox="0 0 24 24" xmlns="http://www.w3.org/2000/svg" fill='currentColor'><path d="M19.055 3.53502C17.385 2.14502 15.315 1.23502 13.025 1.02502V3.03502C14.755 3.22502 16.335 3.91502 17.635 4.95502L19.055 3.53502Z"/><path d="M11.025 3.03502V1.02502C8.73502 1.22502 6.66502 2.14502 4.99502 3.53502L6.41502 4.95502C7.71502 3.91502 9.29502 3.22502 11.025 3.03502Z"/><path d="M5.00502 6.36502L3.58502 4.94502C2.19502 6.61502 1.28502 8.68502 1.07502 10.975H3.08502C3.27502 9.24502 3.96502 7.66502 5.00502 6.36502Z"/><path d="M20.965 10.975H22.975C22.765 8.68502 21.855 6.61502 20.465 4.94502L19.045 6.36502C20.085 7.66502 20.775 9.24502 20.965 10.975Z"/><path d="M7.02502 11.975L10.465 13.535L12.025 16.975L13.585 13.535L17.025 11.975L13.585 10.415L12.025 6.97502L10.465 10.415L7.02502 11.975Z"/><path d="M12.025 20.975C8.91502 20.975 6.17502 19.385 4.56502 16.975H7.02502V14.975H1.02502V20.975H3.02502V18.275C5.01502 21.115 8.29502 22.975 12.025 22.975C16.895 22.975 21.025 19.805 22.465 15.415L20.505 14.965C19.275 18.455 15.945 20.975 12.025 20.975Z"/></svg>

<svg xmlns="http://www.w3.org/2000/svg" width="24" height="24" viewBox="0 0 24 24" fill='currentColor'><path d="M19.055 3.535c-1.67-1.39-3.74-2.3-6.03-2.51v2.01c1.73.19 3.31.88 4.61 1.92zm-8.03-.5v-2.01c-2.29.2-4.36 1.12-6.03 2.51l1.42 1.42a8.93 8.93 0 0 1 4.61-1.92m-6.02 3.33-1.42-1.42c-1.39 1.67-2.3 3.74-2.51 6.03h2.01c.19-1.73.88-3.31 1.92-4.61m15.96 4.61h2.01c-.21-2.29-1.12-4.36-2.51-6.03l-1.42 1.42a8.93 8.93 0 0 1 1.92 4.61m-13.94 1 3.44 1.56 1.56 3.44 1.56-3.44 3.44-1.56-3.44-1.56-1.56-3.44-1.56 3.44z"/><path d="M12.025 20.975a8.96 8.96 0 0 1-7.46-4h2.46v-2h-6v6h2v-2.7c1.99 2.84 5.27 4.7 9 4.7 4.87 0 9-3.17 10.44-7.56l-1.96-.45c-1.23 3.49-4.56 6.01-8.48 6.01"/></svg>
